papirus/48x48/apps/frogr.svg

<svg height="48" viewBox="0 0 48 48.000001" width="48" xmlns="http://www.w3.org/2000/svg"><g transform="translate(0 -1004.3622)"><path d="m21 1009.3622h4c4.432 0 8 3.568 8 8v22c0 4.432-3.568 8-8 8h-4c-4.432 0-8-3.568-8-8v-22c0-4.432 3.568-8 8-8z" fill="#91dd48"/><path d="m8 1046.3622v-10h10" fill="none" stroke="#91dd48" stroke-linecap="round" stroke-linejoin="round" stroke-width="4"/><path d="m4.0220952 1042.3622h2.9779048" fill="none" stroke="#91dd48" stroke-linecap="round" stroke-linejoin="round" stroke-width="3.98739982"/><path d="m8 1010.362v10h10" fill="none" stroke="#91dd48" stroke-linecap="round" stroke-linejoin="round" stroke-width="4"/><path d="m4 1014.362h3" fill="none" stroke="#91dd48" stroke-linecap="round" stroke-linejoin="round" stroke-width="3.98739982"/><path d="m38 1046.3622v-10h-10" fill="none" stroke="#91dd48" stroke-linecap="round" stroke-linejoin="round" stroke-width="4"/><path d="m42 1042.3622h-3" fill="none" stroke="#91dd48" stroke-linecap="round" stroke-linejoin="round" stroke-width="3.98739982"/><path d="m38 1010.362v10h-10" fill="none" stroke="#91dd48" stroke-linecap="round" stroke-linejoin="round" stroke-width="4"/><path d="m42 1014.362h-3" fill="none" stroke="#91dd48" stroke-linecap="round" stroke-linejoin="round" stroke-width="3.98739982"/><path d="m2.0234375 9.4804688a1.9938993 1.9938993 0 0 0 1.9765625 2.5136722h2v-1.029297h-2a1.9938993 1.9938993 0 0 1 -1.9765625-1.4843752zm41.9531245.0039062a1.9938993 1.9938993 0 0 1 -1.976562 1.480469h-2v1.029297h2a1.9938993 1.9938993 0 0 0 1.976562-2.509766zm-37.976562 5.486328v1.029297a2.0002 2.0002 0 0 0 2 2h5v-1.029297h-5a2.0002 2.0002 0 0 1 -2-2zm34 0a2.0002 2.0002 0 0 1 -2 2h-5v1.029297h5a2.0002 2.0002 0 0 0 2-2zm-30 18v1.029297h3v1c0 4.432 3.568 8 8 8h4c4.432 0 8-3.568 8-8v-1h3v-1.029297h-3v1c0 4.432-3.568 8-8 8h-4c-4.432 0-8-3.568-8-8v-1zm-7.9550781 4.509766a1.9938993 1.9938993 0 0 0 1.9765625 2.513672h1.9785156v-1.029297h-1.9785156a1.9938993 1.9938993 0 0 1 -1.9765625-1.484375zm41.9316401.003906a1.9938993 1.9938993 0 0 1 -1.976562 1.480469h-2v1.029297h2a1.9938993 1.9938993 0 0 0 1.976562-2.509766zm-37.976562 3.486328v1.029297a2.0002 2.0002 0 1 0 4 0v-1.029297a2.0002 2.0002 0 1 1 -4 0zm30 0v1.029297a2.0002 2.0002 0 1 0 4 0v-1.029297a2.0002 2.0002 0 1 1 -4 0z" fill-rule="evenodd" opacity=".3" overflow="visible" transform="translate(0 1004.3622)"/><path d="m7.9707031 3.9726562a2.0002 2.0002 0 0 0 -1.9707031 2.0273438v.9707031a2.0002 2.0002 0 0 1 1.9707031-2.0273437 2.0002 2.0002 0 0 1  2.0292969 2.0273437v-.9707031a2.0002 2.0002 0 0 0 -2.0292969-2.0273438zm29.9999999 0a2.0002 2.0002 0 0 0 -1.970703 2.0273438v.9707031a2.0002 2.0002 0 0 1 1.970703-2.0273437 2.0002 2.0002 0 0 1  2.029297 2.0273437v-.9707031a2.0002 2.0002 0 0 0 -2.029297-2.0273438zm-16.970703 1.0273438c-4.432 0-8 3.568-8 8v .970703c0-4.4319999 3.568-7.9999999 8-7.9999999h4c4.432 0 8 3.568 8 7.9999999v-.970703c0-4.432-3.568-8-8-8zm-17 3.0078125a1.9938993 1.9938993 0 0 0 -1.984375 2.4824215 1.9938993 1.9938993 0 0 1  1.984375-1.5117184h2v-.9707031zm36 0v .9707031h2a1.9938993 1.9938993 0 0 1 1.984375 1.5117184 1.9938993 1.9938993 0 0 0 -1.984375-2.4824215zm-30 5.9921875v.970703h3v-.970703zm23 0v .970703h3v-.970703zm-25 16a2.0002 2.0002 0 0 0 -2 2v .970703a2.0002 2.0002 0 0 1 2-2h5v-.970703zm25 0v .970703h5a2.0002 2.0002 0 0 1 2 2v-.970703a2.0002 2.0002 0 0 0 -2-2zm-28.9785156 6.007812a1.9938993 1.9938993 0 0 0 -1.984375 2.482422 1.9938993 1.9938993 0 0 1  1.984375-1.511718h1.9785156v-.970704zm35.9785156 0v .970704h2a1.9938993 1.9938993 0 0 1 1.984375 1.511718 1.9938993 1.9938993 0 0 0 -1.984375-2.482422z" fill="#fff" fill-rule="evenodd" opacity=".2" overflow="visible" transform="translate(0 1004.3622)"/><g transform="translate(-1 2.0000174)"><circle cx="18" cy="1010.3622" fill="#9a48dd" r="4"/><circle cx="18" cy="1011.3622" opacity=".2" r="2"/><circle cx="18" cy="1010.3622" fill="#fff" r="2"/></g><g transform="translate(11 2.0000174)"><circle cx="18" cy="1010.3622" fill="#9a48dd" r="4"/><circle cx="18" cy="1011.3622" opacity=".2" r="2"/><circle cx="18" cy="1010.3622" fill="#fff" r="2"/></g></g></svg>

<?xml version="1.0" encoding="UTF-8" standalone="no"?>
<!-- Created with Inkscape (http://www.inkscape.org/) -->

<svg
   xmlns:dc="http://purl.org/dc/elements/1.1/"
   xmlns:cc="http://creativecommons.org/ns#"
   xmlns:rdf="http://www.w3.org/1999/02/22-rdf-syntax-ns#"
   xmlns:svg="http://www.w3.org/2000/svg"
   xmlns="http://www.w3.org/2000/svg"
   xmlns:sodipodi="http://sodipodi.sourceforge.net/DTD/sodipodi-0.dtd"
   xmlns:inkscape="http://www.inkscape.org/namespaces/inkscape"
   width="48"
   height="48"
   viewBox="0 0 48 48.000001"
   id="svg4180"
   version="1.1"
   inkscape:version="0.91 r13725"
   sodipodi:docname="frogr.svg">
  <defs
     id="defs4182" />
  <sodipodi:namedview
     id="base"
     pagecolor="#6d6d6d"
     bordercolor="#666666"
     borderopacity="1.0"
     inkscape:pageopacity="0"
     inkscape:pageshadow="2"
     inkscape:zoom="1"
     inkscape:cx="28.338174"
     inkscape:cy="25.591964"
     inkscape:document-units="px"
     inkscape:current-layer="layer1"
     showgrid="false"
     units="px"
     inkscape:window-width="1535"
     inkscape:window-height="876"
     inkscape:window-x="65"
     inkscape:window-y="24"
     inkscape:window-maximized="1" />
  <metadata
     id="metadata4185">
    <rdf:RDF>
      <cc:Work
         rdf:about="">
        <dc:format>image/svg+xml</dc:format>
        <dc:type
           rdf:resource="http://purl.org/dc/dcmitype/StillImage" />
        <dc:title></dc:title>
      </cc:Work>
    </rdf:RDF>
  </metadata>
  <g
     inkscape:label="Layer 1"
     inkscape:groupmode="layer"
     id="layer1"
     transform="translate(0,-1004.3622)">
    <path
       style="opacity:1;fill:#91dd48;fill-opacity:1;stroke:none;stroke-width:1;stroke-linecap:round;stroke-linejoin:round;stroke-miterlimit:4;stroke-dasharray:none;stroke-opacity:1"
       d="m 21,1009.3622 4,0 c 4.432,0 8,3.568 8,8 l 0,22 c 0,4.432 -3.568,8 -8,8 l -4,0 c -4.432,0 -8,-3.568 -8,-8 l 0,-22 c 0,-4.432 3.568,-8 8,-8 z"
       id="rect4728"
       inkscape:connector-curvature="0" />
    <path
       sodipodi:nodetypes="ccc"
       inkscape:connector-curvature="0"
       id="path4759"
       d="m 8,1046.3622 0,-10 10,0"
       style="fill:none;fill-rule:evenodd;stroke:#91dd48;stroke-width:4;stroke-linecap:round;stroke-linejoin:round;stroke-miterlimit:4;stroke-dasharray:none;stroke-opacity:1" />
    <path
       sodipodi:nodetypes="cc"
       inkscape:connector-curvature="0"
       id="path4761"
       d="M 4.0220952,1042.3622 7,1042.3622"
       style="fill:none;fill-rule:evenodd;stroke:#91dd48;stroke-width:3.98739982;stroke-linecap:round;stroke-linejoin:round;stroke-miterlimit:4;stroke-dasharray:none;stroke-opacity:1" />
    <path
       style="fill:none;fill-rule:evenodd;stroke:#91dd48;stroke-width:4;stroke-linecap:round;stroke-linejoin:round;stroke-miterlimit:4;stroke-dasharray:none;stroke-opacity:1"
       d="m 8,1010.362 0,10 10,0"
       id="path4906"
       inkscape:connector-curvature="0"
       sodipodi:nodetypes="ccc" />
    <path
       style="fill:none;fill-rule:evenodd;stroke:#91dd48;stroke-width:3.98739982;stroke-linecap:round;stroke-linejoin:round;stroke-miterlimit:4;stroke-dasharray:none;stroke-opacity:1"
       d="m 4,1014.362 3,0"
       id="path4908"
       inkscape:connector-curvature="0"
       sodipodi:nodetypes="cc" />
    <path
       style="fill:none;fill-rule:evenodd;stroke:#91dd48;stroke-width:4;stroke-linecap:round;stroke-linejoin:round;stroke-miterlimit:4;stroke-dasharray:none;stroke-opacity:1"
       d="m 38,1046.3622 0,-10 -10,0"
       id="path5051"
       inkscape:connector-curvature="0"
       sodipodi:nodetypes="ccc" />
    <path
       style="fill:none;fill-rule:evenodd;stroke:#91dd48;stroke-width:3.98739982;stroke-linecap:round;stroke-linejoin:round;stroke-miterlimit:4;stroke-dasharray:none;stroke-opacity:1"
       d="m 42,1042.3622 -3,0"
       id="path5053"
       inkscape:connector-curvature="0"
       sodipodi:nodetypes="cc" />
    <path
       sodipodi:nodetypes="ccc"
       inkscape:connector-curvature="0"
       id="path5055"
       d="m 38,1010.362 0,10 -10,0"
       style="fill:none;fill-rule:evenodd;stroke:#91dd48;stroke-width:4;stroke-linecap:round;stroke-linejoin:round;stroke-miterlimit:4;stroke-dasharray:none;stroke-opacity:1" />
    <path
       sodipodi:nodetypes="cc"
       inkscape:connector-curvature="0"
       id="path5057"
       d="m 42,1014.362 -3,0"
       style="fill:none;fill-rule:evenodd;stroke:#91dd48;stroke-width:3.98739982;stroke-linecap:round;stroke-linejoin:round;stroke-miterlimit:4;stroke-dasharray:none;stroke-opacity:1" />
    <path
       style="color:#000000;font-style:normal;font-variant:normal;font-weight:normal;font-stretch:normal;font-size:medium;line-height:normal;font-family:sans-serif;text-indent:0;text-align:start;text-decoration:none;text-decoration-line:none;text-decoration-style:solid;text-decoration-color:#000000;letter-spacing:normal;word-spacing:normal;text-transform:none;direction:ltr;block-progression:tb;writing-mode:lr-tb;baseline-shift:baseline;text-anchor:start;white-space:normal;clip-rule:nonzero;display:inline;overflow:visible;visibility:visible;opacity:0.3;isolation:auto;mix-blend-mode:normal;color-interpolation:sRGB;color-interpolation-filters:linearRGB;solid-color:#000000;solid-opacity:1;fill:#000000;fill-opacity:1;fill-rule:evenodd;stroke:none;stroke-width:4;stroke-linecap:round;stroke-linejoin:round;stroke-miterlimit:4;stroke-dasharray:none;stroke-dashoffset:0;stroke-opacity:1;color-rendering:auto;image-rendering:auto;shape-rendering:auto;text-rendering:auto;enable-background:accumulate"
       d="M 2.0234375 9.4804688 A 1.9938993 1.9938993 0 0 0 4 11.994141 L 6 11.994141 L 6 10.964844 L 4 10.964844 A 1.9938993 1.9938993 0 0 1 2.0234375 9.4804688 z M 43.976562 9.484375 A 1.9938993 1.9938993 0 0 1 42 10.964844 L 40 10.964844 L 40 11.994141 L 42 11.994141 A 1.9938993 1.9938993 0 0 0 43.976562 9.484375 z M 6 14.970703 L 6 16 A 2.0002 2.0002 0 0 0 8 18 L 13 18 L 13 16.970703 L 8 16.970703 A 2.0002 2.0002 0 0 1 6 14.970703 z M 40 14.970703 A 2.0002 2.0002 0 0 1 38 16.970703 L 33 16.970703 L 33 18 L 38 18 A 2.0002 2.0002 0 0 0 40 16 L 40 14.970703 z M 10 32.970703 L 10 34 L 13 34 L 13 35 C 13 39.432 16.568 43 21 43 L 25 43 C 29.432 43 33 39.432 33 35 L 33 34 L 36 34 L 36 32.970703 L 33 32.970703 L 33 33.970703 C 33 38.402703 29.432 41.970703 25 41.970703 L 21 41.970703 C 16.568 41.970703 13 38.402703 13 33.970703 L 13 32.970703 L 10 32.970703 z M 2.0449219 37.480469 A 1.9938993 1.9938993 0 0 0 4.0214844 39.994141 L 6 39.994141 L 6 38.964844 L 4.0214844 38.964844 A 1.9938993 1.9938993 0 0 1 2.0449219 37.480469 z M 43.976562 37.484375 A 1.9938993 1.9938993 0 0 1 42 38.964844 L 40 38.964844 L 40 39.994141 L 42 39.994141 A 1.9938993 1.9938993 0 0 0 43.976562 37.484375 z M 6 40.970703 L 6 42 A 2.0002 2.0002 0 1 0 10 42 L 10 40.970703 A 2.0002 2.0002 0 1 1 6 40.970703 z M 36 40.970703 L 36 42 A 2.0002 2.0002 0 1 0 40 42 L 40 40.970703 A 2.0002 2.0002 0 1 1 36 40.970703 z "
       transform="translate(0,1004.3622)"
       id="path5075" />
    <path
       style="color:#000000;font-style:normal;font-variant:normal;font-weight:normal;font-stretch:normal;font-size:medium;line-height:normal;font-family:sans-serif;text-indent:0;text-align:start;text-decoration:none;text-decoration-line:none;text-decoration-style:solid;text-decoration-color:#000000;letter-spacing:normal;word-spacing:normal;text-transform:none;direction:ltr;block-progression:tb;writing-mode:lr-tb;baseline-shift:baseline;text-anchor:start;white-space:normal;clip-rule:nonzero;display:inline;overflow:visible;visibility:visible;opacity:0.2;isolation:auto;mix-blend-mode:normal;color-interpolation:sRGB;color-interpolation-filters:linearRGB;solid-color:#000000;solid-opacity:1;fill:#ffffff;fill-opacity:1;fill-rule:evenodd;stroke:none;stroke-width:4;stroke-linecap:round;stroke-linejoin:round;stroke-miterlimit:4;stroke-dasharray:none;stroke-dashoffset:0;stroke-opacity:1;color-rendering:auto;image-rendering:auto;shape-rendering:auto;text-rendering:auto;enable-background:accumulate"
       d="M 7.9707031 3.9726562 A 2.0002 2.0002 0 0 0 6 6 L 6 6.9707031 A 2.0002 2.0002 0 0 1 7.9707031 4.9433594 A 2.0002 2.0002 0 0 1 10 6.9707031 L 10 6 A 2.0002 2.0002 0 0 0 7.9707031 3.9726562 z M 37.970703 3.9726562 A 2.0002 2.0002 0 0 0 36 6 L 36 6.9707031 A 2.0002 2.0002 0 0 1 37.970703 4.9433594 A 2.0002 2.0002 0 0 1 40 6.9707031 L 40 6 A 2.0002 2.0002 0 0 0 37.970703 3.9726562 z M 21 5 C 16.568 5 13 8.568 13 13 L 13 13.970703 C 13 9.5387031 16.568 5.9707031 21 5.9707031 L 25 5.9707031 C 29.432 5.9707031 33 9.5387031 33 13.970703 L 33 13 C 33 8.568 29.432 5 25 5 L 21 5 z M 4 8.0078125 A 1.9938993 1.9938993 0 0 0 2.015625 10.490234 A 1.9938993 1.9938993 0 0 1 4 8.9785156 L 6 8.9785156 L 6 8.0078125 L 4 8.0078125 z M 40 8.0078125 L 40 8.9785156 L 42 8.9785156 A 1.9938993 1.9938993 0 0 1 43.984375 10.490234 A 1.9938993 1.9938993 0 0 0 42 8.0078125 L 40 8.0078125 z M 10 14 L 10 14.970703 L 13 14.970703 L 13 14 L 10 14 z M 33 14 L 33 14.970703 L 36 14.970703 L 36 14 L 33 14 z M 8 30 A 2.0002 2.0002 0 0 0 6 32 L 6 32.970703 A 2.0002 2.0002 0 0 1 8 30.970703 L 13 30.970703 L 13 30 L 8 30 z M 33 30 L 33 30.970703 L 38 30.970703 A 2.0002 2.0002 0 0 1 40 32.970703 L 40 32 A 2.0002 2.0002 0 0 0 38 30 L 33 30 z M 4.0214844 36.007812 A 1.9938993 1.9938993 0 0 0 2.0371094 38.490234 A 1.9938993 1.9938993 0 0 1 4.0214844 36.978516 L 6 36.978516 L 6 36.007812 L 4.0214844 36.007812 z M 40 36.007812 L 40 36.978516 L 42 36.978516 A 1.9938993 1.9938993 0 0 1 43.984375 38.490234 A 1.9938993 1.9938993 0 0 0 42 36.007812 L 40 36.007812 z "
       transform="translate(0,1004.3622)"
       id="path5111" />
    <g
       id="g4780"
       transform="translate(-1,2.0000174)">
      <circle
         r="4"
         cy="1010.3622"
         cx="18"
         id="path4770"
         style="opacity:1;fill:#9a48dd;fill-opacity:1;stroke:none;stroke-width:4;stroke-linecap:round;stroke-linejoin:round;stroke-miterlimit:4;stroke-dasharray:none;stroke-opacity:1" />
      <circle
         r="2"
         cy="1011.3622"
         cx="18"
         id="circle4776"
         style="opacity:0.2;fill:#000000;fill-opacity:1;stroke:none;stroke-width:4;stroke-linecap:round;stroke-linejoin:round;stroke-miterlimit:4;stroke-dasharray:none;stroke-opacity:1" />
      <circle
         style="opacity:1;fill:#ffffff;fill-opacity:1;stroke:none;stroke-width:4;stroke-linecap:round;stroke-linejoin:round;stroke-miterlimit:4;stroke-dasharray:none;stroke-opacity:1"
         id="circle4774"
         cx="18"
         cy="1010.3622"
         r="2" />
    </g>
    <g
       id="g4785"
       transform="translate(11,2.0000174)">
      <circle
         style="opacity:1;fill:#9a48dd;fill-opacity:1;stroke:none;stroke-width:4;stroke-linecap:round;stroke-linejoin:round;stroke-miterlimit:4;stroke-dasharray:none;stroke-opacity:1"
         id="circle4787"
         cx="18"
         cy="1010.3622"
         r="4" />
      <circle
         style="opacity:0.2;fill:#000000;fill-opacity:1;stroke:none;stroke-width:4;stroke-linecap:round;stroke-linejoin:round;stroke-miterlimit:4;stroke-dasharray:none;stroke-opacity:1"
         id="circle4789"
         cx="18"
         cy="1011.3622"
         r="2" />
      <circle
         r="2"
         cy="1010.3622"
         cx="18"
         id="circle4791"
         style="opacity:1;fill:#ffffff;fill-opacity:1;stroke:none;stroke-width:4;stroke-linecap:round;stroke-linejoin:round;stroke-miterlimit:4;stroke-dasharray:none;stroke-opacity:1" />
    </g>
  </g>
</svg>
